src/assets/img/error_auth.svg

<svg width="130" height="213" viewBox="0 0 130 213" fill="none" xmlns="http://www.w3.org/2000/svg">
<g clip-path="url(#clip0_2648_4888)">
<path d="M11.9612 207.706C8.55898 207.627 5.82814 205.113 5.82814 202.021V147.209" stroke="#2F3645" stroke-width="3" stroke-miterlimit="10"/>
<path d="M65.0286 170.334V196.184V196.402" stroke="#2F3645" stroke-width="3" stroke-miterlimit="10" stroke-linecap="round"/>
<path d="M65.0286 197.257V197.15" stroke="#2F3645" stroke-width="3" stroke-miterlimit="10" stroke-linecap="round"/>
<path d="M129.299 150.204V203.843C129.299 208.515 124.966 212.303 119.625 212.303H10.3766C5.03219 212.303 0.702133 208.514 0.702133 203.843V150.13C0.732916 147.404 2.80267 145.108 5.83693 144.28L5.86332 199.093V199.687C5.86332 202.461 8.59416 204.707 11.9963 204.779H58.7328C62.1438 204.779 64.9201 204.779 65.0256 196.873C65.0256 196.915 65.0256 196.959 65.0256 197.003C65.0256 197.047 65.0256 197.099 65.0256 197.149V196.401C65.0256 204.779 67.8444 204.779 71.3214 204.779H118.065C119.621 204.767 121.129 204.242 122.354 203.288C123.493 202.366 124.198 201.097 124.198 199.687V197.172L124.225 144.219C127.156 145.039 129.173 147.234 129.291 149.867C129.296 149.979 129.299 150.09 129.299 150.204Z" fill="#E6B9A6" stroke="#2F3645" stroke-width="3" stroke-miterlimit="10"/>
<path d="M124.198 144.219V189.068V197.172V198.009" stroke="#2F3645" stroke-width="3" stroke-miterlimit="10"/>
<path d="M124.198 199.092C124.195 200.317 123.766 201.504 122.985 202.45C122.97 202.471 122.954 202.49 122.939 202.507C122.336 203.21 121.59 203.777 120.749 204.169C119.908 204.561 118.993 204.77 118.065 204.781" stroke="#2F3645" stroke-width="3" stroke-miterlimit="10"/>
<path d="M65.0286 196.402C65.0286 196.534 65.0286 196.662 65.0286 196.789C65.0271 196.795 65.0271 196.801 65.0286 196.807C65.0286 196.824 65.0286 196.84 65.0286 196.858V196.874" stroke="#2F3645" stroke-width="3" stroke-miterlimit="10"/>
<path d="M124.198 136.076V189.068C124.198 192.209 121.379 194.755 117.903 194.755L71.3243 192.067C65.6721 192.067 65.0726 193.596 65.0286 196.185C65.0286 196.379 65.0286 196.582 65.0286 196.789C65.0271 196.795 65.0271 196.801 65.0286 196.807V197.004C65.0286 196.96 65.0286 196.916 65.0286 196.874V196.858C64.9978 193.888 64.8072 192.067 58.7358 192.067L12.1547 194.755C8.6777 194.755 5.86331 192.209 5.86331 189.068V136.076C5.86331 132.934 8.6821 130.381 12.1664 130.381L42.5442 128.15C46.6378 127.849 50.7421 127.698 54.8572 127.697H58.7343C62.2113 127.697 65.03 131.59 65.03 134.731C65.03 131.59 67.8488 127.697 71.3258 127.697H75.1369C79.2413 127.697 83.3363 127.848 87.4221 128.15L117.911 130.387C121.379 130.387 124.198 132.934 124.198 136.076Z" fill="white" stroke="#2F3645" stroke-width="3" stroke-linejoin="round"/>
<path d="M65.0198 153.457C67.8322 153.457 70.1121 151.894 70.1121 149.966C70.1121 148.038 67.8322 146.475 65.0198 146.475C62.2074 146.475 59.9275 148.038 59.9275 149.966C59.9275 151.894 62.2074 153.457 65.0198 153.457Z" stroke="#2F3645" stroke-width="3" stroke-miterlimit="10" stroke-linecap="round"/>
<path d="M74.0317 145.191L78.2225 148.998" stroke="#2F3645" stroke-width="3" stroke-miterlimit="10" stroke-linecap="round"/>
<path d="M74.0317 148.998L78.2225 145.191" stroke="#2F3645" stroke-width="3" stroke-miterlimit="10" stroke-linecap="round"/>
<path d="M51.8405 145.191L56.0299 148.998" stroke="#2F3645" stroke-width="3" stroke-miterlimit="10" stroke-linecap="round"/>
<path d="M51.8405 148.998L56.0299 145.191" stroke="#2F3645" stroke-width="3" stroke-miterlimit="10" stroke-linecap="round"/>
</g>
<path d="M89.7718 2H39.2595C36.3366 1.99941 33.4422 2.57462 30.7415 3.69278C28.0409 4.81094 25.587 6.45015 23.5199 8.51678C21.4529 10.5834 19.8132 13.037 18.6945 15.7374C17.5758 18.4378 17 21.3321 17 24.2551V74.7941C17 77.7171 17.5758 80.6114 18.6945 83.3118C19.8132 86.0122 21.4529 88.4658 23.5199 90.5324C25.587 92.599 28.0409 94.2383 30.7415 95.3564C33.4422 96.4746 36.3366 97.0498 39.2595 97.0492H53.8622L59.8106 107.747C60.183 108.416 60.7236 108.976 61.3789 109.371C62.0342 109.767 62.7815 109.984 63.5466 110.001C64.3118 110.019 65.0683 109.836 65.7411 109.472C66.4139 109.107 66.9798 108.573 67.3825 107.922L74.0912 97.0492H89.7449C92.6675 97.0492 95.5615 96.4735 98.2616 95.3551C100.962 94.2367 103.415 92.5974 105.482 90.5308C107.548 88.4643 109.188 86.0109 110.306 83.3108C111.424 80.6107 112 77.7167 112 74.7941V24.2551C112 18.3573 109.659 12.7007 105.491 8.52784C101.323 4.35497 95.6695 2.00711 89.7718 2Z" stroke="#2F3645" stroke-width="3" stroke-miterlimit="10"/>
<path d="M65.6706 20.1358C68.0166 20.1695 70.3005 20.8952 72.2358 22.2218C74.1711 23.5483 75.6716 25.4167 76.5493 27.5927C77.4269 29.7687 77.6425 32.1554 77.1692 34.4534C76.6958 36.7514 75.5545 38.8586 73.8883 40.5106C72.2222 42.1626 70.1054 43.2859 67.8034 43.7396C65.5014 44.1933 63.1166 43.9573 60.9482 43.0611C58.7798 42.165 56.9243 40.6485 55.6143 38.702C54.3043 36.7555 53.5981 34.4655 53.5844 32.1192C53.5751 30.5343 53.8822 28.9634 54.4876 27.4986C55.093 26.0338 55.9845 24.7044 57.1101 23.5885C58.2356 22.4725 59.5725 21.5923 61.0424 20.9995C62.5123 20.4066 64.0858 20.113 65.6706 20.1358ZM65.6706 15C62.2847 15 58.9749 16.004 56.1597 17.8851C53.3444 19.7662 51.1502 22.4399 49.8545 25.568C48.5588 28.6961 48.2197 32.1382 48.8803 35.459C49.5408 38.7798 51.1713 41.8302 53.5655 44.2244C55.9596 46.6185 59.01 48.249 62.3308 48.9095C65.6516 49.5701 69.0937 49.2311 72.2218 47.9354C75.35 46.6396 78.0236 44.4454 79.9047 41.6302C81.7858 38.8149 82.7898 35.5051 82.7898 32.1192C82.7898 27.5789 80.9862 23.2246 77.7757 20.0141C74.5652 16.8036 70.2109 15 65.6706 15Z" fill="#2F3645"/>
<rect x="81" y="67" width="5" height="7" fill="#FEC420"/>
<path d="M65.6706 80.8424H39.4439C38.0001 80.8424 36.6154 80.2689 35.5945 79.248C34.5736 78.227 34 76.8423 34 75.3985C34 70.8582 35.8036 66.5039 39.0141 63.2934C42.2246 60.0829 46.5789 58.2793 51.1192 58.2793H73.2031" stroke="#2F3645" stroke-width="5" stroke-linecap="round" stroke-linejoin="round"/>
<path d="M79.7438 65.4328C79.7438 63.7263 80.2498 62.0582 81.1979 60.6393C82.146 59.2204 83.4935 58.1145 85.0701 57.4615C86.6467 56.8084 88.3815 56.6376 90.0552 56.9705C91.7288 57.3034 93.2662 58.1251 94.4729 59.3318C95.6795 60.5385 96.5013 62.0758 96.8342 63.7495C97.1671 65.4232 96.9963 67.158 96.3432 68.7346C95.6902 70.3112 94.5843 71.6587 93.1654 72.6068C91.7465 73.5549 90.0784 74.0609 88.3719 74.0609" fill="#FEC420"/>
<path d="M79.7438 65.4328C79.7438 63.7263 80.2498 62.0582 81.1979 60.6393C82.146 59.2204 83.4935 58.1145 85.0701 57.4615C86.6467 56.8084 88.3815 56.6376 90.0552 56.9705C91.7288 57.3034 93.2662 58.1251 94.4729 59.3318C95.6795 60.5385 96.5013 62.0758 96.8342 63.7495C97.1671 65.4232 96.9963 67.158 96.3432 68.7346C95.6902 70.3112 94.5843 71.6587 93.1654 72.6068C91.7465 73.5549 90.0784 74.0609 88.3719 74.0609" stroke="#2F3645" stroke-width="5" stroke-linecap="round" stroke-linejoin="round"/>
<path d="M79.9495 67.1807L73.3415 73.7887C73.2302 73.91 73.169 74.0691 73.1703 74.2338V79.6777C73.1783 79.9508 73.2881 80.2111 73.4781 80.4075C73.6682 80.6039 73.9247 80.7221 74.1975 80.7391H79.6414C79.7292 80.7515 79.8186 80.7424 79.9021 80.7126C79.9856 80.6827 80.0606 80.6331 80.1207 80.5679L86.7287 73.9599" fill="#FEC420"/>
<path d="M79.9495 67.1807L73.3415 73.7887C73.2302 73.91 73.169 74.0691 73.1703 74.2338V79.6777C73.1783 79.9508 73.2881 80.2111 73.4781 80.4075C73.6682 80.6039 73.9247 80.7221 74.1975 80.7391H79.6414C79.7292 80.7515 79.8186 80.7424 79.9021 80.7126C79.9856 80.6827 80.0606 80.6331 80.1207 80.5679L86.7287 73.9599" stroke="#2F3645" stroke-width="5" stroke-linecap="round" stroke-linejoin="round"/>
<path d="M88.3706 67.7296C89.6375 67.7296 90.6645 66.7025 90.6645 65.4356C90.6645 64.1686 89.6375 63.1416 88.3706 63.1416C87.1036 63.1416 86.0766 64.1686 86.0766 65.4356C86.0766 66.7025 87.1036 67.7296 88.3706 67.7296Z" fill="#2F3645"/>
<path d="M79.8795 67.0075C79.468 64.7703 79.9567 62.4612 81.2391 60.5825C82.5215 58.7037 84.4939 57.4074 86.7272 56.9756" stroke="#2F3645" stroke-width="5" stroke-linecap="round" stroke-linejoin="round"/>
<path d="M97 66.3574C96.8767 67.4857 96.5312 68.5784 95.9833 69.5724C95.4354 70.5664 94.696 71.4421 93.8079 72.1488C92.9197 72.8555 91.9004 73.3792 90.8087 73.6898C89.717 74.0004 88.5746 74.0917 87.4475 73.9584" stroke="#2F3645" stroke-width="5" stroke-linecap="round" stroke-linejoin="round"/>
<defs>
<clipPath id="clip0_2648_4888">
<rect width="130" height="86" fill="white" transform="translate(0 127)"/>
</clipPath>
</defs>
</svg>

<svg width="130" height="213" fill="none" xmlns="http://www.w3.org/2000/svg"><g clip-path="url(#a)" stroke="#2F3645" stroke-width="3"><path d="M11.961 207.706c-3.402-.079-6.133-2.593-6.133-5.685v-54.812" stroke-miterlimit="10"/><path d="M65.029 170.334v26.068M65.029 197.257v-.107" stroke-miterlimit="10" stroke-linecap="round"/><path d="M129.299 150.204v53.639c0 4.672-4.333 8.46-9.674 8.46H10.377c-5.345 0-9.675-3.789-9.675-8.46V150.13c.03-2.726 2.1-5.022 5.135-5.85l.026 54.813v.594c0 2.774 2.731 5.02 6.133 5.092h46.737c3.41 0 6.187 0 6.293-7.906v.276-.748c0 8.378 2.818 8.378 6.295 8.378h46.744a7.07 7.07 0 0 0 4.289-1.491c1.139-.922 1.844-2.191 1.844-3.601v-2.515l.027-52.953c2.931.82 4.948 3.015 5.066 5.648.005.112.008.223.008.337z" fill="#E6B9A6" stroke-miterlimit="10"/><path d="M124.198 144.219v53.79M124.198 199.092a5.296 5.296 0 0 1-1.259 3.415 6.507 6.507 0 0 1-2.19 1.662 6.537 6.537 0 0 1-2.684.612M65.029 196.402v.387a.037.037 0 0 0 0 .018v.067" stroke-miterlimit="10"/><path d="M124.198 136.076v52.992c0 3.141-2.819 5.687-6.295 5.687l-46.579-2.688c-5.652 0-6.251 1.529-6.295 4.118v.604a.037.037 0 0 0 0 .018v.197V196.858c-.031-2.97-.222-4.791-6.293-4.791l-46.581 2.688c-3.477 0-6.292-2.546-6.292-5.687v-52.992c0-3.142 2.82-5.695 6.303-5.695l30.378-2.231a168.41 168.41 0 0 1 12.313-.453h3.877c3.477 0 6.296 3.893 6.296 7.034 0-3.141 2.819-7.034 6.296-7.034h3.81c4.105 0 8.2.151 12.286.453l30.489 2.237c3.468 0 6.287 2.547 6.287 5.689z" fill="#fff" stroke-linejoin="round"/><path d="M65.02 153.457c2.812 0 5.092-1.563 5.092-3.491 0-1.928-2.28-3.491-5.092-3.491-2.813 0-5.092 1.563-5.092 3.491 0 1.928 2.28 3.491 5.092 3.491zM74.032 145.191l4.19 3.807M74.032 148.998l4.19-3.807M51.84 145.191l4.19 3.807M51.84 148.998l4.19-3.807" stroke-miterlimit="10" stroke-linecap="round"/></g><path d="M89.772 2H39.259A22.255 22.255 0 0 0 17 24.255v50.54a22.255 22.255 0 0 0 22.26 22.254h14.602l5.949 10.698a4.388 4.388 0 0 0 3.736 2.254 4.396 4.396 0 0 0 3.835-2.079l6.71-10.873h15.653A22.256 22.256 0 0 0 112 74.794V24.255A22.255 22.255 0 0 0 89.772 2z" stroke="#2F3645" stroke-width="3" stroke-miterlimit="10"/><path d="M65.67 20.136a11.915 11.915 0 1 1-.342 23.826 11.915 11.915 0 0 1 .343-23.826zm0-5.136a17.119 17.119 0 1 0 0 34.238 17.119 17.119 0 0 0 0-34.238z" fill="#2F3645"/><path fill="#FEC420" d="M81 67h5v7h-5z"/><path d="M65.67 80.842H39.445A5.444 5.444 0 0 1 34 75.398 17.12 17.12 0 0 1 51.12 58.28h22.083" stroke="#2F3645" stroke-width="5" stroke-linecap="round" stroke-linejoin="round"/><path d="M79.744 65.433a8.628 8.628 0 1 1 8.628 8.628" fill="#FEC420"/><path d="M79.744 65.433a8.628 8.628 0 1 1 8.628 8.628" stroke="#2F3645" stroke-width="5" stroke-linecap="round" stroke-linejoin="round"/><path d="M79.95 67.18 73.34 73.79a.65.65 0 0 0-.17.445v5.444a1.096 1.096 0 0 0 1.026 1.061h5.444a.548.548 0 0 0 .48-.171l6.608-6.608" fill="#FEC420"/><path d="M79.95 67.18 73.34 73.79a.65.65 0 0 0-.17.445v5.444a1.096 1.096 0 0 0 1.026 1.061h5.444a.548.548 0 0 0 .48-.171l6.608-6.608" stroke="#2F3645" stroke-width="5" stroke-linecap="round" stroke-linejoin="round"/><path d="M88.37 67.73a2.294 2.294 0 1 0 0-4.588 2.294 2.294 0 0 0 0 4.588z" fill="#2F3645"/><path d="M79.88 67.007a8.628 8.628 0 0 1 6.847-10.031M97 66.357a8.594 8.594 0 0 1-9.552 7.601" stroke="#2F3645" stroke-width="5" stroke-linecap="round" stroke-linejoin="round"/><defs><clipPath id="a"><path fill="#fff" transform="translate(0 127)" d="M0 0h130v86H0z"/></clipPath></defs></svg>
